X:245
T:Gee O’Dobbin. JC.250
T:How Do You Do?, aka. JC.250
R:Air
S:John Clare,Poet,Helpstone (1793-1864)
N:No KS in MS.More or less the same as the morris dance
N:tune, “How Do You Do,” from Sherborne. CGP.
N:Song text exists,(or not). See Deacon.
O:England
A:Northamptonshire
Z:vmp.P. Headford
M:6/8
L:1/8
Q:3/8=60
K:D
” qu’s”A/G/|\
FDF AFA|BAB ABc|dcd Bge|cAcd2:|!
|:” qu’s”c/d/|efe dcB|ecAA2F/G/|ABA AGF|GEG” crot”G3|!
F2A FDF|G2B GEG|FGA Bcd|cBcd2:|

